X:16
T:Tont Que T'Aimab
R:Bourre
M:3/8
L:1/8
N:La Bourre 4th edition 1929, page 32
Z:Steve Mansfield www.lesession.co.uk April 2012
K:Bb
!f!f e d | e f2 | c/ d/ e f | e/ d/ c B |
f e d | e f2 | c/ d/ e/ d/ c | B2 F |
B/ c/ B F | B c2 | c/ d/ e f | e/ d/ c B |
d/ c/ B F | B c2 | c/ d/ e f | B3 |]
<end>
<start>
